src/images/esapiens-logo.svg

<svg width="168" height="118" viewBox="0 0 168 118" fill="none" xmlns="http://www.w3.org/2000/svg">
<path d="M86.1353 69.3425H83.7858C83.7644 69.2248 83.7217 69.1071 83.7217 68.9895C83.743 65.0847 83.7537 61.1799 83.8071 57.2752C83.8071 56.7724 83.946 56.2482 84.0741 55.7561C84.48 54.269 85.4732 53.3918 86.9577 53.0602C88.3461 52.7499 89.7558 52.7392 91.1442 52.9639C93.1841 53.2955 94.2094 54.3332 94.5511 56.3765C94.8715 58.3022 94.8715 60.2492 94.5405 62.1748C94.2521 63.8437 93.3016 64.9349 91.6142 65.3094C90.3539 65.5875 89.0723 65.6731 87.8121 65.3842C87.2567 65.2559 86.7334 64.967 86.1567 64.7317V69.3318L86.1353 69.3425ZM86.0499 59.2436C86.1033 60.0673 86.114 60.9232 86.2208 61.7683C86.3596 62.7953 86.947 63.4158 87.9509 63.5121C88.7946 63.5977 89.649 63.5977 90.5034 63.5335C91.4753 63.4586 91.9559 63.02 92.1268 62.0572C92.4686 60.2064 92.4472 58.3343 92.1482 56.4728C91.9666 55.3388 91.454 54.9109 90.3112 54.836C89.585 54.7825 88.8587 54.7825 88.1325 54.836C86.9043 54.9323 86.3489 55.4672 86.2101 56.7082C86.114 57.5426 86.1033 58.3771 86.0499 59.2436Z" fill="#424F63"/>
<path d="M70.3504 48.7595C69.7523 49.3586 69.1543 49.9791 68.5348 50.5461C68.3853 50.6745 68.1183 50.7066 67.894 50.7066C66.527 50.7386 65.1493 50.728 63.7822 50.76C61.7958 50.8135 61.0589 51.7122 61.3472 53.6806C61.4647 54.5364 61.9239 55.1034 62.7677 55.2853C63.9531 55.5313 65.1386 55.7132 66.3241 55.9379C66.9542 56.0555 67.5843 56.1839 68.1931 56.3658C69.5387 56.7723 70.4145 57.6709 70.564 59.0831C70.6601 60.0138 70.6708 60.9766 70.564 61.9073C70.3824 63.5013 69.3999 64.5069 67.8727 64.8493C66.794 65.0953 65.6619 65.2023 64.5512 65.2451C62.7249 65.3093 60.888 65.2665 59.051 65.2665C58.9336 65.2665 58.8161 65.2451 58.5918 65.213C59.2753 64.5283 59.8841 63.8865 60.5142 63.2874C60.621 63.1911 60.8453 63.2125 61.0161 63.2018C62.6502 63.1697 64.2842 63.1483 65.9289 63.0948C66.292 63.0841 66.6658 62.9878 67.0183 62.8809C67.7338 62.6669 68.1824 62.1748 68.2678 61.4366C68.3319 60.9124 68.3105 60.3668 68.2571 59.8426C68.1717 59.1473 67.7659 58.6445 67.0717 58.4733C66.0037 58.2165 64.9143 58.0454 63.8356 57.8207C62.9172 57.6281 61.9773 57.4784 61.0909 57.1788C59.7239 56.7188 59.0831 55.649 59.0083 54.2476C58.9763 53.488 58.9336 52.7071 59.051 51.9582C59.3394 50.1503 60.5889 49.2516 62.2657 48.8986C63.0453 48.7381 63.8463 48.6632 64.6473 48.6418C66.527 48.6098 68.4173 48.6311 70.297 48.6311C70.3184 48.6739 70.3397 48.7167 70.3504 48.7595Z" fill="#424F63"/>
<path d="M79.7588 57.5319C79.9938 56.2802 79.4918 55.4565 78.3597 55.2639C77.6655 55.1462 76.95 55.1462 76.2344 55.1355C75.049 55.1141 73.8635 55.1355 72.4965 55.1355C73.2013 54.4295 73.7994 53.809 74.4082 53.2099C74.4509 53.1671 74.5363 53.1564 74.6111 53.1564C76.1383 53.2313 77.6762 53.1778 79.1714 53.4239C81.019 53.7234 81.9696 54.8039 82.055 56.6654C82.1618 59.0082 82.1084 61.3618 82.055 63.7153C82.0336 64.646 81.5424 65.1596 80.6025 65.1702C78.6161 65.2023 76.6189 65.2344 74.6431 65.074C72.6673 64.9135 71.7382 63.726 71.7168 61.7469C71.7168 61.2655 71.6848 60.7734 71.7702 60.3027C72.0372 58.7194 73.0411 57.7993 74.7926 57.6496C76.2451 57.5319 77.7083 57.564 79.1607 57.5212C79.3637 57.5212 79.5773 57.5212 79.7695 57.5212L79.7588 57.5319ZM79.8122 59.4254C78.5306 59.4254 77.2918 59.4254 76.0529 59.4254C74.3548 59.4468 73.8955 59.9068 73.9169 61.5864C73.9276 62.5813 74.2586 63.1162 75.2305 63.2018C76.6189 63.3302 78.0287 63.2874 79.4277 63.3088C79.5452 63.3088 79.6627 63.2767 79.8015 63.2553V59.4147L79.8122 59.4254Z" fill="#424F63"/>
<path d="M57.843 63.3302C57.2663 63.9079 56.6789 64.4856 56.0915 65.0419C55.9954 65.1275 55.8459 65.213 55.7284 65.2023C54.1691 65.181 52.5885 65.2344 51.0399 65.074C48.8932 64.86 47.6543 63.5656 47.5048 61.4046C47.3873 59.8106 47.398 58.2059 47.5155 56.6119C47.6757 54.5686 48.8291 53.4239 50.8583 53.0173C52.2574 52.7392 53.6458 52.7499 55.0235 53.1136C56.6789 53.5522 57.5974 54.6541 57.7683 56.3337C57.8537 57.1789 57.8217 58.0454 57.7149 58.8905C57.5974 59.7892 57.2129 60.0566 56.2944 60.0566C54.3186 60.0566 52.3428 60.0566 50.3671 60.0566C49.6835 60.0566 49.6622 60.078 49.7263 60.7306C49.8971 62.7204 50.3564 63.159 52.3535 63.1804C53.9876 63.2018 55.6216 63.1804 57.2663 63.1804C57.4372 63.1804 57.6081 63.1804 57.7896 63.1804C57.811 63.2232 57.8217 63.266 57.843 63.3088V63.3302ZM55.5575 58.2487C55.5575 57.6282 55.6216 57.0398 55.5468 56.4728C55.3973 55.4244 54.9701 54.9644 53.9021 54.8146C53.1225 54.7076 52.3001 54.6862 51.5205 54.7825C50.4205 54.9109 49.9612 55.4458 49.8117 56.5584C49.7583 56.9328 49.7583 57.3072 49.7156 57.671C49.6622 58.1203 49.801 58.3021 50.2923 58.2915C51.8729 58.2594 53.4536 58.2915 55.0342 58.2808C55.2051 58.2808 55.3759 58.2594 55.5682 58.2487H55.5575Z" fill="#424F63"/>
<path d="M111.061 63.3195C110.41 63.9935 109.812 64.6032 109.224 65.213C109.171 65.2665 109.064 65.3093 108.99 65.2986C107.43 65.2451 105.86 65.2772 104.312 65.0953C102.453 64.8814 101.332 63.7153 101.044 61.8753C100.755 60.0566 100.734 58.2165 101.065 56.3979C101.439 54.3439 102.443 53.4238 104.536 53.0387C105.882 52.7927 107.227 52.8034 108.552 53.1671C110.282 53.6485 111.275 54.9109 111.318 56.7081C111.339 57.4142 111.35 58.1417 111.254 58.837C111.115 59.8212 110.773 60.078 109.79 60.078C107.815 60.078 105.839 60.0994 103.863 60.078C103.35 60.078 103.18 60.2171 103.222 60.7413C103.361 62.806 103.895 63.3195 105.967 63.3302C107.644 63.3302 109.31 63.3302 111.072 63.3302L111.061 63.3195ZM106.17 58.2807C106.683 58.2807 107.206 58.2807 107.719 58.2807C108.73 58.2807 109.189 57.7672 109.096 56.7402C108.99 55.542 108.53 54.9644 107.355 54.8039C106.576 54.6969 105.753 54.7183 104.974 54.8146C103.927 54.9537 103.511 55.4351 103.329 56.4835C103.265 56.9007 103.254 57.3393 103.212 57.7565C103.169 58.1417 103.308 58.3021 103.714 58.2914C104.536 58.27 105.348 58.2914 106.17 58.2914V58.2807Z" fill="#424F63"/>
<path d="M123.472 65.2024C122.767 65.2024 122.105 65.2024 121.454 65.2024C121.037 65.2024 121.123 64.9028 121.123 64.6782C121.123 62.7739 121.123 60.859 121.123 58.9548C121.123 58.1524 121.123 57.3501 121.08 56.5477C121.037 55.5956 120.61 55.05 119.681 54.9537C118.741 54.8574 117.769 54.836 116.818 54.943C115.697 55.0607 115.27 55.6384 115.27 56.8045C115.259 59.372 115.27 61.9395 115.27 64.507C115.27 64.721 115.27 64.9242 115.27 65.2131C114.544 65.2131 113.86 65.2345 113.177 65.1917C113.081 65.1917 112.92 64.86 112.92 64.6782C112.899 62.6456 112.899 60.6129 112.92 58.5803C112.92 57.6175 112.888 56.644 113.016 55.7026C113.198 54.3439 114.106 53.5202 115.387 53.1778C117.256 52.6857 119.157 52.6857 121.026 53.1778C122.564 53.5844 123.429 54.6328 123.472 56.291C123.536 59.2329 123.493 62.1748 123.493 65.2024H123.472Z" fill="#424F63"/>
<path d="M124.829 65.1703C125.395 64.614 125.961 64.0363 126.549 63.5014C126.687 63.3837 126.933 63.3516 127.136 63.3409C128.471 63.3195 129.806 63.3409 131.141 63.2981C132.23 63.266 132.743 62.7097 132.69 61.6934C132.657 60.9446 132.273 60.4952 131.472 60.3883C130.415 60.2492 129.357 60.1315 128.289 60.0673C125.63 59.8962 124.21 57.5533 125.31 55.0928C125.619 54.4081 126.143 53.9374 126.837 53.6806C127.296 53.5095 127.787 53.3169 128.268 53.3062C130.201 53.2634 132.134 53.2848 134.11 53.2848C133.523 53.8946 132.967 54.5044 132.369 55.0714C132.273 55.1677 132.027 55.1249 131.857 55.1356C130.703 55.1677 129.539 55.1356 128.396 55.2425C127.563 55.3174 127.232 55.7774 127.243 56.5691C127.243 57.3179 127.638 57.7459 128.471 57.8528C129.688 58.0026 130.917 58.0882 132.123 58.2487C134.377 58.5589 135.189 60.1101 134.964 62.2497C134.783 63.9828 133.64 65.0205 131.707 65.181C129.988 65.32 128.257 65.2772 126.538 65.3093C125.993 65.3093 125.449 65.3093 124.904 65.3093C124.882 65.2665 124.861 65.2131 124.84 65.1703H124.829Z" fill="#424F63"/>
<path d="M98.9305 65.1703H96.645V53.2527C97.2751 53.2527 97.8839 53.2099 98.4926 53.2634C98.8664 53.2955 98.9626 53.6485 98.9519 54.0016C98.9519 55.2425 98.9519 56.4942 98.9519 57.7352C98.9519 59.9924 98.9519 62.2604 98.9519 64.5177C98.9519 64.7209 98.9305 64.9349 98.9198 65.1703H98.9305Z" fill="#424F63"/>
<path d="M96.5374 48.5884H99.0258C99.0258 49.2624 99.0578 49.9364 99.0044 50.5996C98.9937 50.7708 98.7054 51.0489 98.5238 51.0596C97.8723 51.1131 97.2209 51.081 96.5374 51.081V48.5884Z" fill="#424F63"/>
<path d="M37.3174 58.377H30.9094L41.269 48H47.5701L37.3174 58.377Z" fill="#3FC6C2"/>
<path d="M37.3174 58.377H30.9094L41.269 48L37.3174 58.377Z" fill="#18ABB4"/>
<path d="M31.4429 68.7541H27L37.3595 58.377H43.6607L34.7857 67.3633C33.8992 68.2619 32.7031 68.7541 31.4429 68.7541Z" fill="#E47059"/>
<path d="M33.5788 68.2406C32.9274 68.5722 32.2011 68.7541 31.4535 68.7541H27L37.3595 58.377L33.5788 68.2406Z" fill="#F6876B"/>
</svg>

<?xml version="1.0" encoding="UTF-8"?>
<svg id="Layer_1" xmlns="http://www.w3.org/2000/svg" version="1.1" viewBox="0 0 168 118">
  <!-- Generator: Adobe Illustrator 30.2.1, SVG Export Plug-In . SVG Version: 2.1.1 Build 1)  -->
  <defs>
    <style>
      .st0 {
        fill: #e3e3e3;
      }

      .st1 {
        fill: #3fc6c2;
      }

      .st2 {
        fill: #f6876b;
      }

      .st3 {
        fill: #18abb4;
      }

      .st4 {
        fill: #e47059;
      }
    </style>
  </defs>
  <path class="st0" d="M86.14,69.34h-2.35c-.02-.12-.06-.24-.06-.35.02-3.9.03-7.81.09-11.71,0-.5.14-1.03.27-1.52.41-1.49,1.4-2.36,2.88-2.7,1.39-.31,2.8-.32,4.19-.1,2.04.33,3.07,1.37,3.41,3.41.32,1.93.32,3.87-.01,5.8-.29,1.67-1.24,2.76-2.93,3.13-1.26.28-2.54.36-3.8.07-.56-.13-1.08-.42-1.66-.65v4.6h-.02ZM86.05,59.24c.05.82.06,1.68.17,2.52.14,1.03.73,1.65,1.73,1.74.84.09,1.7.09,2.55.02.97-.07,1.45-.51,1.62-1.48.34-1.85.32-3.72.02-5.58-.18-1.13-.69-1.56-1.84-1.64-.73-.05-1.45-.05-2.18,0-1.23.1-1.78.63-1.92,1.87-.1.83-.11,1.67-.16,2.54Z"/>
  <path class="st0" d="M70.35,48.76c-.6.6-1.2,1.22-1.82,1.79-.15.13-.42.16-.64.16-1.37.03-2.74.02-4.11.05-1.99.05-2.72.95-2.44,2.92.12.86.58,1.42,1.42,1.6,1.19.25,2.37.43,3.56.65.63.12,1.26.25,1.87.43,1.35.41,2.22,1.31,2.37,2.72.1.93.11,1.89,0,2.82-.18,1.59-1.16,2.6-2.69,2.94-1.08.25-2.21.35-3.32.4-1.83.06-3.66.02-5.5.02-.12,0-.23-.02-.46-.05.68-.68,1.29-1.33,1.92-1.93.11-.1.33-.07.5-.09,1.63-.03,3.27-.05,4.91-.11.36-.01.74-.11,1.09-.21.72-.21,1.16-.71,1.25-1.44.06-.52.04-1.07-.01-1.59-.09-.7-.49-1.2-1.19-1.37-1.07-.26-2.16-.43-3.24-.65-.92-.19-1.86-.34-2.74-.64-1.37-.46-2.01-1.53-2.08-2.93-.03-.76-.07-1.54.04-2.29.29-1.81,1.54-2.71,3.21-3.06.78-.16,1.58-.24,2.38-.26,1.88-.03,3.77-.01,5.65-.01.02.04.04.09.05.13Z"/>
  <path class="st0" d="M79.76,57.53c.24-1.25-.27-2.08-1.4-2.27-.69-.12-1.41-.12-2.13-.13-1.19-.02-2.37,0-3.74,0,.7-.71,1.3-1.33,1.91-1.93.04-.04.13-.05.2-.05,1.53.07,3.07.02,4.56.27,1.85.3,2.8,1.38,2.88,3.24.11,2.34.05,4.7,0,7.05-.02.93-.51,1.44-1.45,1.45-1.99.03-3.98.06-5.96-.1-1.98-.16-2.9-1.35-2.93-3.33,0-.48-.03-.97.05-1.44.27-1.58,1.27-2.5,3.02-2.65,1.45-.12,2.92-.09,4.37-.13h.61-.01ZM79.81,59.43h-3.76c-1.7.02-2.16.48-2.14,2.16.01.99.34,1.53,1.31,1.62,1.39.13,2.8.09,4.2.11.12,0,.24-.03.37-.05v-3.84h.01Z"/>
  <path class="st0" d="M57.84,63.33c-.58.58-1.16,1.16-1.75,1.71-.1.09-.25.17-.36.16-1.56-.02-3.14.03-4.69-.13-2.15-.21-3.39-1.51-3.54-3.67-.12-1.59-.11-3.2.01-4.79.16-2.04,1.31-3.19,3.34-3.59,1.4-.28,2.79-.27,4.17.1,1.66.44,2.57,1.54,2.74,3.22.09.85.05,1.71-.05,2.56-.12.9-.5,1.17-1.42,1.17h-5.93c-.68,0-.7.02-.64.67.17,1.99.63,2.43,2.63,2.45,1.63.02,3.27,0,4.91,0h.52s.03.09.05.13v.02ZM55.56,58.25c0-.62.06-1.21-.01-1.78-.15-1.05-.58-1.51-1.64-1.66-.78-.11-1.6-.13-2.38-.03-1.1.13-1.56.66-1.71,1.78-.05.37-.05.75-.1,1.11-.05.45.09.63.58.62,1.58-.03,3.16,0,4.74-.01.17,0,.34-.02.53-.03h-.01Z"/>
  <path class="st0" d="M111.06,63.32c-.65.67-1.25,1.28-1.84,1.89-.05.05-.16.1-.23.09-1.56-.05-3.13-.02-4.68-.2-1.86-.21-2.98-1.38-3.27-3.22-.29-1.82-.31-3.66.02-5.48.37-2.05,1.38-2.97,3.47-3.36,1.35-.25,2.69-.24,4.02.13,1.73.48,2.72,1.74,2.77,3.54.02.71.03,1.43-.06,2.13-.14.98-.48,1.24-1.46,1.24-1.97,0-3.95.02-5.93,0-.51,0-.68.14-.64.66.14,2.06.67,2.58,2.75,2.59h5.1-.01ZM106.17,58.28h1.55c1.01,0,1.47-.51,1.38-1.54-.11-1.2-.57-1.78-1.74-1.94-.78-.11-1.6-.09-2.38.01-1.05.14-1.46.62-1.64,1.67-.06.42-.08.86-.12,1.27-.04.39.1.55.5.53.82-.02,1.63,0,2.46,0h0Z"/>
  <path class="st0" d="M123.47,65.2h-2.02c-.42,0-.33-.3-.33-.52v-5.72c0-.8,0-1.6-.04-2.41-.04-.95-.47-1.5-1.4-1.59-.94-.1-1.91-.12-2.86-.01-1.12.12-1.55.7-1.55,1.86-.01,2.57,0,5.13,0,7.7v.71c-.73,0-1.41.02-2.09-.02-.1,0-.26-.33-.26-.51-.02-2.03-.02-4.07,0-6.1,0-.96-.03-1.94.1-2.88.18-1.36,1.09-2.18,2.37-2.52,1.87-.49,3.77-.49,5.64,0,1.54.41,2.4,1.46,2.45,3.11.06,2.94.02,5.88.02,8.91h-.02Z"/>
  <path class="st0" d="M124.83,65.17c.57-.56,1.13-1.13,1.72-1.67.14-.12.38-.15.59-.16,1.33-.02,2.67,0,4.01-.04,1.09-.03,1.6-.59,1.55-1.6-.03-.75-.42-1.2-1.22-1.31-1.06-.14-2.12-.26-3.18-.32-2.66-.17-4.08-2.51-2.98-4.97.31-.68.83-1.16,1.53-1.41.46-.17.95-.36,1.43-.37,1.93-.04,3.87-.02,5.84-.02-.59.61-1.14,1.22-1.74,1.79-.1.1-.34.05-.51.06-1.15.03-2.32,0-3.46.11-.83.07-1.16.53-1.15,1.33,0,.75.4,1.18,1.23,1.28,1.22.15,2.45.24,3.65.4,2.25.31,3.07,1.86,2.84,4-.18,1.73-1.32,2.77-3.26,2.93-1.72.14-3.45.1-5.17.13h-1.63s-.04-.1-.06-.14h-.01Z"/>
  <path class="st0" d="M98.93,65.17h-2.29v-11.92c.63,0,1.24-.04,1.85.01.37.03.47.39.46.74v10.52c0,.2-.02.42-.03.65h.01Z"/>
  <path class="st0" d="M96.54,48.59h2.49c0,.67.03,1.35-.02,2.01-.01.17-.3.45-.48.46-.65.05-1.3.02-1.99.02v-2.49Z"/>
  <path class="st1" d="M37.32,58.38h-6.41l10.36-10.38h6.3l-10.25,10.38Z"/>
  <path class="st3" d="M37.32,58.38h-6.41l10.36-10.38-3.95,10.38Z"/>
  <path class="st4" d="M31.44,68.75h-4.44l10.36-10.38h6.3l-8.88,8.99c-.89.9-2.08,1.39-3.34,1.39Z"/>
  <path class="st2" d="M33.58,68.24c-.65.33-1.38.51-2.13.51h-4.45l10.36-10.38-3.78,9.86Z"/>
</svg>
